icon/fa/calendar-plus.svg

<svg xmlns="http://www.w3.org/2000/svg" viewBox="0 0 448 512"><!--! Font Awesome Free 6.1.2 by @fontawesome - https://fontawesome.com License - https://fontawesome.com/license/free (Icons: CC BY 4.0, Fonts: SIL OFL 1.1, Code: MIT License) Copyright 2022 Fonticons, Inc.--><path d="M96 32c0-17.67 14.3-32 32-32s32 14.33 32 32v32h128V32c0-17.67 14.3-32 32-32s32 14.33 32 32v32h48c26.5 0 48 21.49 48 48v48H0v-48c0-26.51 21.49-48 48-48h48V32zm352 432c0 26.5-21.5 48-48 48H48c-26.51 0-48-21.5-48-48V192h448v272zM200 272v56h-56c-13.3 0-24 10.7-24 24s10.7 24 24 24h56v56c0 13.3 10.7 24 24 24s24-10.7 24-24v-56h56c13.3 0 24-10.7 24-24s-10.7-24-24-24h-56v-56c0-13.3-10.7-24-24-24s-24 10.7-24 24z"/></svg>

<svg xmlns="http://www.w3.org/2000/svg" viewBox="0 0 448 512" height="1em" width="1em">
<!--! Font Awesome Free 6.1.2 by @fontawesome - https://fontawesome.com License - https://fontawesome.com/license/free (Icons: CC BY 4.0, Fonts: SIL OFL 1.1, Code: MIT License) Copyright 2022 Fonticons, Inc.-->
  <path d="M96 32C96 14.33 110.3 0 128 0C145.7 0 160 14.33 160 32V64H288V32C288 14.33 302.3 0 320 0C337.7 0 352 14.33 352 32V64H400C426.5 64 448 85.49 448 112V160H0V112C0 85.49 21.49 64 48 64H96V32zM448 464C448 490.5 426.5 512 400 512H48C21.49 512 0 490.5 0 464V192H448V464zM200 272V328H144C130.7 328 120 338.7 120 352C120 365.3 130.7 376 144 376H200V432C200 445.3 210.7 456 224 456C237.3 456 248 445.3 248 432V376H304C317.3 376 328 365.3 328 352C328 338.7 317.3 328 304 328H248V272C248 258.7 237.3 248 224 248C210.7 248 200 258.7 200 272z"/>
</svg>
